dist/img/stack/stack-19.svg

<svg width="110" height="110" viewBox="0 0 110 110" fill="none" xmlns="http://www.w3.org/2000/svg">
<path d="M106.237 67.5903V42.5348C106.237 42.0303 105.9 41.694 105.396 41.694H101.696C101.192 41.694 100.856 42.0303 100.856 42.5348V67.5903C100.856 68.0948 101.192 68.4311 101.696 68.4311H105.396C105.9 68.2629 106.237 67.9266 106.237 67.5903ZM87.0666 68.2629V41.8621C85.0487 41.8621 81.8537 43.2074 81.8537 46.0661V64.059C80.6766 64.2272 78.995 64.3953 77.9861 64.3953C74.6229 64.3953 73.7821 62.0411 73.7821 58.8461V45.8979C73.614 42.7029 70.0826 41.8621 68.5692 41.8621V58.6779C68.5692 64.7316 71.5961 68.5993 77.9861 68.5993C78.995 68.5993 81.0129 68.2629 81.8537 68.0948V68.4311C82.6945 73.644 76.3045 71.6261 72.9413 71.2898C70.419 71.2898 68.7374 73.3077 68.2329 75.6619C69.7463 76.1664 74.4548 76.6708 77.8179 77.0072C83.8716 77.1753 87.0666 73.8122 87.0666 68.2629ZM96.6516 67.5903V42.5348C96.6516 42.0303 96.3153 41.694 95.8108 41.694H92.1113C91.6069 41.694 91.2705 42.0303 91.2705 42.5348V67.5903C91.2705 68.0948 91.6069 68.4311 92.1113 68.4311H95.8108C96.3153 68.2629 96.6516 67.9266 96.6516 67.5903ZM93.9611 34.6313C95.4745 34.6313 96.6516 35.8085 96.6516 37.3219C96.6516 38.8353 95.4745 40.0124 93.9611 40.0124C92.4477 40.0124 91.2705 38.8353 91.2705 37.3219C91.2705 35.9766 92.4477 34.6313 93.9611 34.6313ZM103.714 34.6313C105.228 34.6313 106.405 35.8085 106.405 37.3219C106.405 38.8353 105.228 40.0124 103.714 40.0124C102.201 40.0124 101.024 38.8353 101.024 37.3219C101.024 35.9766 102.201 34.6313 103.714 34.6313Z" fill="#B7B7BE"/>
<path fill-rule="evenodd" clip-rule="evenodd" d="M36.7352 42.9504C34.1087 35.3695 41.7857 27.2426 48.101 27.0002C51.8851 28.9743 55.1341 34.1583 54.9717 41.1932C54.4758 49.8602 48.3434 57.3297 41.6692 64.2114C41.2975 55.82 39.5164 50.4709 36.7352 42.9504Z" fill="#B7B7BE"/>
<path fill-rule="evenodd" clip-rule="evenodd" d="M21.8466 84C20.7893 75.5379 24.2247 68.3194 27.6345 63.9178C29.2548 61.851 30.5008 59.9653 31.4483 58.2285C33.2396 59.0042 38.0545 61.5303 40.7073 65.6317C40.322 71.5812 35.9256 82.4086 21.8457 84" fill="#B7B7BE"/>
<path fill-rule="evenodd" clip-rule="evenodd" d="M16.5254 51.8605C5.31947 48.7263 2.55521 38.8813 3.05533 32.2615C13.9372 27.8506 25.6483 32.3687 32.4101 41.7859C37.1511 48.3861 40.1194 56.8481 40.7216 64.2334C37.4692 59.9407 33.361 57.4537 28.1285 55.506C24.5494 54.1749 21.2433 53.2929 16.5254 51.8605Z" fill="#B7B7BE"/>
</svg>

<svg width="110" height="110" viewBox="0 0 110 110" fill="none" xmlns="http://www.w3.org/2000/svg"><path d="M106.237 67.59V42.535c0-.505-.337-.841-.841-.841h-3.7c-.504 0-.84.336-.84.84V67.59c0 .505.336.841.84.841h3.7c.504-.168.841-.504.841-.84zm-19.17.673v-26.4c-2.018 0-5.213 1.344-5.213 4.203V64.06c-1.177.168-2.859.336-3.868.336-3.363 0-4.204-2.354-4.204-5.549V45.898c-.168-3.195-3.7-4.036-5.213-4.036v16.816c0 6.054 3.027 9.921 9.417 9.921 1.009 0 3.027-.336 3.868-.504v.336c.84 5.213-5.55 3.195-8.913 2.859-2.522 0-4.204 2.018-4.708 4.372 1.513.504 6.222 1.009 9.585 1.345 6.054.168 9.249-3.195 9.249-8.744zm9.585-.673V42.535c0-.505-.337-.841-.841-.841h-3.7c-.504 0-.84.336-.84.84V67.59c0 .505.336.841.84.841h3.7c.504-.168.84-.504.84-.84zm-2.69-32.959a2.656 2.656 0 012.69 2.69 2.656 2.656 0 01-2.69 2.691 2.656 2.656 0 01-2.692-2.69c0-1.345 1.178-2.69 2.691-2.69zm9.752 0a2.656 2.656 0 012.691 2.69 2.656 2.656 0 01-2.691 2.691 2.656 2.656 0 01-2.69-2.69c0-1.345 1.177-2.69 2.69-2.69z" fill="#B7B7BE"/><path fill-rule="evenodd" clip-rule="evenodd" d="M36.735 42.95C34.11 35.37 41.785 27.243 48.101 27c3.784 1.974 7.033 7.158 6.87 14.193-.495 8.667-6.628 16.137-13.302 23.018-.371-8.391-2.153-13.74-4.934-21.26zM21.847 84c-1.058-8.462 2.378-15.68 5.787-20.082 1.62-2.067 2.867-3.953 3.814-5.69 1.792.776 6.606 3.302 9.26 7.404-.386 5.95-4.782 16.777-18.862 18.368" fill="#B7B7BE"/><path fill-rule="evenodd" clip-rule="evenodd" d="M16.525 51.86C5.32 48.727 2.555 38.882 3.055 32.261c10.882-4.41 22.593.108 29.355 9.525 4.741 6.6 7.71 15.062 8.312 22.447-3.253-4.292-7.361-6.78-12.594-8.727-3.579-1.331-6.885-2.213-11.603-3.645z" fill="#B7B7BE"/></svg>
